X:141
T:Blechynden's Maggot. JJo8.141
B:J.Johnson Choice Collection Vol 8 1758
Z:vmp.Simon Wilson 2013 www.village-music-project.org.uk
M:6/8
L:1/8
Q:3/8=110
K:F
|:faf faf|gcc ccc|BdB BdB|AFF FFF|
faf faf|gee fdd|ecc d=BB|cCC CCC:|
|:gbg gbg|aff fff|bag fed|^cde ed^c|
bgg aff|bgg aff|(f/g/a)f cfe|f3F3:|
